src/icon/ui/ok-filled/icon_ok-filled_xxl_white.svg

<svg width="48px" height="48px" viewBox="0 0 48 48" version="1.1" xmlns="http://www.w3.org/2000/svg"><g stroke="none" stroke-width="1" fill="none" fill-rule="evenodd"><rect x="9.90909091" y="14.9090909" width="26.1818182" height="26.1818182"/><path d="M24,0 C37.254834,-2.4348735e-15 48,10.745166 48,24 C48,37.254834 37.254834,48 24,48 C10.745166,48 1.623249e-15,37.254834 0,24 C-1.623249e-15,10.745166 10.745166,2.4348735e-15 24,0 Z M20.2727273,29.7518506 L13.5871369,23.0056112 L12.0909091,24.4545455 L20.2727273,32.6363636 L36.4545455,16.4545455 L34.9382339,14.9482798 L20.2727273,29.7518506 Z" fill="#FFFFFF" fill-rule="nonzero"/></g></svg>

<svg width="48" height="48" viewBox="0 0 48 48" xmlns="http://www.w3.org/2000/svg"><g fill="none" fill-rule="evenodd"><path d="M9.909 14.909h26.182v26.182H9.909z"/><path d="M24 0c13.255 0 24 10.745 24 24S37.255 48 24 48 0 37.255 0 24 10.745 0 24 0zm-3.727 29.752l-6.686-6.746-1.496 1.449 8.182 8.181 16.182-16.181-1.517-1.507-14.665 14.804z" fill="#FFF" fill-rule="nonzero"/></g></svg>
